Simply-Cyan-Circles/scalable/apps/distributor-logo-fedora.svg

<svg xmlns="http://www.w3.org/2000/svg" width="48" height="48" viewBox="0 0 12.7 12.7"><path d="M6.34.07a6.29 6.29 0 0 0-6.29 6.3 6.29 6.29 0 0 0 6.3 6.28 6.29 6.29 0 0 0 6.28-6.29A6.29 6.29 0 0 0 6.34.07zM6.32 1l.01.01a5.4 5.4 0 0 1 5.4 5.4 5.4 5.4 0 0 1-5.4 5.41 5.4 5.4 0 0 1-5.41-5.4A5.4 5.4 0 0 1 6.32 1z" fill="#5beedc"/><path d="M8.09 2.38c-1.24 0-2.24 1-2.24 2.23v1.24H4.61A2.23 2.23 0 1 0 6.85 8.1V6.85h1.24a2.23 2.23 0 1 0 0-4.47zm0 1a1.24 1.24 0 0 1 0 2.47h-1c-.1 0-.24 0-.24-.27v-.97c0-.68.55-1.24 1.24-1.24zM4.6 6.84h1c.1 0 .24 0 .24.27v.97a1.24 1.24 0 1 1-1.24-1.24z" opacity=".51" fill="#5beedc"/><path d="M8.09 2.38c-1.24 0-2.24 1-2.24 2.23v1.24H4.61a.5.5 0 0 0-.05 0 .5.5 0 0 0-.44.5.5.5 0 0 0 .5.5h.98c.12 0 .25 0 .25.27v.97A1.24 1.24 0 0 1 4.08 9.2a.5.5 0 0 0-.44.89 2.23 2.23 0 0 0 3.2-2.01V6.86h1a.5.5 0 0 0 .5-.5.5.5 0 0 0-.5-.5H7.1c-.12 0-.25 0-.25-.27v-.97a1.24 1.24 0 0 1 1.6-1.18.5.5 0 0 0 .6-.62l.01-.02-.02-.02a.5.5 0 0 0-.36-.3l-.01-.01a2.23 2.23 0 0 0-.58-.08z" fill="#5beedc"/></svg>

<?xml version="1.0" encoding="UTF-8" standalone="no"?>
<svg
   xmlns:dc="http://purl.org/dc/elements/1.1/"
   xmlns:cc="http://creativecommons.org/ns#"
   xmlns:rdf="http://www.w3.org/1999/02/22-rdf-syntax-ns#"
   xmlns:svg="http://www.w3.org/2000/svg"
   xmlns="http://www.w3.org/2000/svg"
   xmlns:sodipodi="http://sodipodi.sourceforge.net/DTD/sodipodi-0.dtd"
   xmlns:inkscape="http://www.inkscape.org/namespaces/inkscape"
   width="48"
   height="48"
   viewBox="0 0 12.7 12.7"
   version="1.1"
   id="svg8"
   sodipodi:docname="distributor-logo-fedora.svg"
   inkscape:version="0.92.4 (5da689c313, 2019-01-14)">
  <metadata
     id="metadata14">
    <rdf:RDF>
      <cc:Work
         rdf:about="">
        <dc:format>image/svg+xml</dc:format>
        <dc:type
           rdf:resource="http://purl.org/dc/dcmitype/StillImage" />
        <dc:title></dc:title>
      </cc:Work>
    </rdf:RDF>
  </metadata>
  <defs
     id="defs12" />
  <sodipodi:namedview
     pagecolor="#ffffff"
     bordercolor="#666666"
     borderopacity="1"
     objecttolerance="10"
     gridtolerance="10"
     guidetolerance="10"
     inkscape:pageopacity="0"
     inkscape:pageshadow="2"
     inkscape:window-width="1087"
     inkscape:window-height="480"
     id="namedview10"
     showgrid="false"
     inkscape:zoom="4.9166667"
     inkscape:cx="2.1355932"
     inkscape:cy="24"
     inkscape:window-x="0"
     inkscape:window-y="25"
     inkscape:window-maximized="0"
     inkscape:current-layer="svg8" />
  <path
     d="M 6.34,0.07 A 6.29,6.29 0 0 0 0.05,6.37 6.29,6.29 0 0 0 6.35,12.65 6.29,6.29 0 0 0 12.63,6.36 6.29,6.29 0 0 0 6.34,0.07 Z M 6.32,1 6.33,1.01 a 5.4,5.4 0 0 1 5.4,5.4 5.4,5.4 0 0 1 -5.4,5.41 A 5.4,5.4 0 0 1 0.92,6.42 5.4,5.4 0 0 1 6.32,1 Z"
     id="path2"
     inkscape:connector-curvature="0"
     style="fill:#5beedc" />
  <path
     d="m 8.09,2.38 c -1.24,0 -2.24,1 -2.24,2.23 V 5.85 H 4.61 A 2.23,2.23 0 1 0 6.85,8.1 V 6.85 h 1.24 a 2.235,2.235 0 1 0 0,-4.47 z m 0,1 a 1.24,1.24 0 0 1 0,2.47 h -1 c -0.1,0 -0.24,0 -0.24,-0.27 V 4.61 C 6.85,3.93 7.4,3.37 8.09,3.37 Z M 4.6,6.84 h 1 c 0.1,0 0.24,0 0.24,0.27 V 8.08 A 1.24,1.24 0 1 1 4.6,6.84 Z"
     id="path4"
     inkscape:connector-curvature="0"
     style="opacity:0.51000001;fill:#5beedc" />
  <path
     d="m 8.09,2.38 c -1.24,0 -2.24,1 -2.24,2.23 V 5.85 H 4.61 a 0.5,0.5 0 0 0 -0.05,0 0.5,0.5 0 0 0 -0.44,0.5 0.5,0.5 0 0 0 0.5,0.5 H 5.6 c 0.12,0 0.25,0 0.25,0.27 V 8.09 A 1.24,1.24 0 0 1 4.08,9.2 0.5,0.5 0 0 0 3.64,10.09 2.23,2.23 0 0 0 6.84,8.08 V 6.86 h 1 a 0.5,0.5 0 0 0 0.5,-0.5 0.5,0.5 0 0 0 -0.5,-0.5 H 7.1 c -0.12,0 -0.25,0 -0.25,-0.27 V 4.62 A 1.24,1.24 0 0 1 8.45,3.44 0.5,0.5 0 0 0 9.05,2.82 L 9.06,2.8 9.04,2.78 A 0.5,0.5 0 0 0 8.68,2.48 L 8.67,2.47 A 2.23,2.23 0 0 0 8.09,2.39 Z"
     id="path6"
     inkscape:connector-curvature="0"
     style="fill:#5beedc" />
</svg>
